X:1405
T: Splendid HP
S: B.Breathnach:"Ceol Rince na hEireann" IV/222 (gan ainm)
Z: B.Black
L: 1/8
M: 4/4
R: hornpipe
K: D
AG|F2 FD AFdF|E2 EE E2 AG|FAdf efgf|(3efd (3cdB (3ABG (3FGE|
F2 FD AFdF|E2 EE E2 AG|FAdf (3efd ce|d2 dd d2 :|
ed|cdef gfge|defg a2 fa|gfeg fddf|(3efd (3cdB (3ABG (3FGE|
F2 FD AFdF|E2 EE E2 AG|FAdf (3efd ce|d2 dd d2 :|
